webroot/img/new-desgin/filter.svg

<svg width="24" height="24" viewBox="0 0 24 24" fill="none" xmlns="http://www.w3.org/2000/svg">
<g id="Group">
<path id="Vector" d="M18.073 3.48477H18.073C18.0708 4.85773 16.954 5.97341 15.5805 5.97341C14.2075 5.97341 13.091 4.85885 13.0879 3.48666L13.0879 3.47708L13.088 3.47708L13.088 3.47321L13.088 3.47186L13.588 3.4747L18.073 3.48477ZM18.073 3.48477L18.0729 3.47758M18.073 3.48477L18.0729 3.47758M18.0729 3.47758L18.0728 3.47081C18.0728 3.47014 18.0728 3.46947 18.0728 3.4688L18.0729 3.47758ZM13.0879 20.5151L13.088 20.5151L13.088 20.5114L13.088 20.51L13.588 20.5129L13.0879 20.5151ZM13.0879 20.5151L13.0879 20.5248M13.0879 20.5151L13.0879 20.5248M13.0879 20.5248C13.091 21.897 14.2075 23.0115 15.5805 23.0115C16.954 23.0115 18.071 21.896 18.073 20.5228H18.073M13.0879 20.5248L18.073 20.5228M18.073 20.5228L18.0729 20.5157M18.073 20.5228L18.0729 20.5157M18.0729 20.5157L18.0728 20.5089C18.0728 20.5082 18.0728 20.5075 18.0728 20.5069L18.0729 20.5157ZM5.92698 11.9961H5.92703C5.92908 10.6229 7.04601 9.50739 8.41955 9.50739C9.79245 9.50739 10.909 10.6219 10.9121 11.9941L10.9121 12.0038L10.912 12.0038L10.912 12.0075L10.912 12.009L10.412 12.006C10.4087 13.1013 9.51492 13.9924 8.41955 13.9924C7.32572 13.9924 6.43191 13.1025 6.42717 12.0078L5.92698 11.9961ZM5.92698 11.9961L5.92707 12.0032L5.92719 12.0122L5.92698 11.9961ZM12.6573 4.12351L12.5711 3.7308H12.169H0.75C0.611955 3.7308 0.5 3.61884 0.5 3.4808C0.5 3.34275 0.611955 3.2308 0.75 3.2308H12.1693H12.5712L12.6576 2.83828C12.953 1.49618 14.1544 0.488281 15.5805 0.488281C17.0056 0.488281 18.2077 1.49637 18.5032 2.83833L18.5897 3.2308H18.9915H23.25C23.388 3.2308 23.5 3.34275 23.5 3.4808C23.5 3.61884 23.388 3.7308 23.25 3.7308H18.9919H18.5898L18.5036 4.12351C18.2086 5.46603 17.0086 6.47336 15.5805 6.47336C14.1523 6.47336 12.9523 5.46599 12.6573 4.12351ZM18.5033 19.8765L18.5897 20.269H18.9915H23.25C23.3881 20.269 23.5 20.3809 23.5 20.519C23.5 20.657 23.3881 20.769 23.25 20.769H18.9919H18.5898L18.5036 21.1617C18.2086 22.5042 17.0086 23.5115 15.5805 23.5115C14.1523 23.5115 12.9523 22.5042 12.6573 21.1617L12.5711 20.769H12.169H0.75C0.611934 20.769 0.5 20.657 0.5 20.519C0.5 20.3809 0.611935 20.269 0.75 20.269H12.1693H12.5712L12.6576 19.8765C12.953 18.5344 14.1544 17.5265 15.5805 17.5265C17.0056 17.5265 18.2077 18.5346 18.5033 19.8765ZM11.3427 11.3572L11.4289 11.7499H11.831H23.25C23.388 11.7499 23.5 11.8619 23.5 11.9999C23.5 12.138 23.3881 12.2499 23.25 12.2499H11.8307H11.4288L11.3424 12.6424C11.047 13.9845 9.84561 14.9924 8.41955 14.9924C6.99439 14.9924 5.79233 13.9843 5.49675 12.6424L5.41031 12.2499H5.00845H0.75C0.611935 12.2499 0.5 12.138 0.5 11.9999C0.5 11.8619 0.611954 11.7499 0.75 11.7499H5.00808H5.41015L5.49643 11.3572C5.79137 10.0147 6.99135 9.00739 8.41955 9.00739C9.84775 9.00739 11.0477 10.0147 11.3427 11.3572Z" fill="white" stroke="white"/>
</g>
</svg>

<svg width="24" height="24" fill="none" xmlns="http://www.w3.org/2000/svg"><path d="M18.073 3.485a2.495 2.495 0 0 1-2.492 2.488 2.495 2.495 0 0 1-2.493-2.486v-.015l.5.003 4.485.01Zm0 0v-.007m0 .007v-.007m0 0V3.469v.009Zm-4.985 17.037v-.005l.5.003-.5.002Zm0 0v.01m0-.01v.01m0 0a2.495 2.495 0 0 0 2.493 2.487 2.495 2.495 0 0 0 2.492-2.49m-4.985.003 4.985-.002m0 0v-.007m0 .007v-.007m0 0V20.507v.009Zm-12.146-8.52A2.495 2.495 0 0 1 8.42 9.507a2.495 2.495 0 0 1 2.492 2.487v.015l-.5-.003a1.996 1.996 0 0 1-1.992 1.986 1.997 1.997 0 0 1-1.993-1.984l-.5-.012Zm0 0v.017-.017Zm6.73-7.872-.086-.393H.75a.25.25 0 0 1 0-.5h11.821l.087-.393A3.001 3.001 0 0 1 15.58.488a3.002 3.002 0 0 1 2.922 2.35l.087.393h4.66a.25.25 0 0 1 0 .5h-4.66l-.086.393a2.999 2.999 0 0 1-2.924 2.35 2.999 2.999 0 0 1-2.923-2.35Zm5.846 15.753.087.392h4.66a.25.25 0 1 1 0 .5h-4.66l-.086.393a2.999 2.999 0 0 1-2.924 2.35 2.999 2.999 0 0 1-2.923-2.35l-.086-.393H.75a.25.25 0 0 1 0-.5h11.821l.087-.392a3.001 3.001 0 0 1 2.923-2.35 3.002 3.002 0 0 1 2.922 2.35Zm-7.16-8.52.086.393H23.25a.25.25 0 0 1 0 .5H11.429l-.087.392a3.001 3.001 0 0 1-2.922 2.35 3.002 3.002 0 0 1-2.923-2.35l-.087-.392H.75a.25.25 0 1 1 0-.5h4.66l.086-.393a2.999 2.999 0 0 1 2.924-2.35 2.999 2.999 0 0 1 2.923 2.35Z" fill="#fff" stroke="#fff"/></svg>
